src/lib/packages/icons/src/assets/line/folder-code.svg

<svg width="24" height="24" viewBox="0 0 24 24" fill="none" xmlns="http://www.w3.org/2000/svg">
<path d="M18 6.25H13.311L10.531 3.47C10.39 3.329 10.2 3.25 10.001 3.25H6.00098C3.58298 3.25 2.25098 4.582 2.25098 7V17C2.25098 19.418 3.58298 20.75 6.00098 20.75H18.001C20.419 20.75 21.751 19.418 21.751 17V10C21.75 7.582 20.418 6.25 18 6.25ZM20.25 17C20.25 18.577 19.577 19.25 18 19.25H6C4.423 19.25 3.75 18.577 3.75 17V7C3.75 5.423 4.423 4.75 6 4.75H9.68896L12.469 7.53C12.61 7.671 12.8 7.75 12.999 7.75H17.999C19.576 7.75 20.249 8.423 20.249 10V17H20.25ZM9.53003 12.53L8.06006 14L9.53003 15.47C9.82303 15.763 9.82303 16.238 9.53003 16.531C9.38403 16.677 9.192 16.751 9 16.751C8.808 16.751 8.61597 16.678 8.46997 16.531L6.46997 14.531C6.17697 14.238 6.17697 13.763 6.46997 13.47L8.46997 11.47C8.76297 11.177 9.23801 11.177 9.53101 11.47C9.82301 11.762 9.82303 12.238 9.53003 12.53ZM14.53 13.47C14.823 13.763 14.823 14.238 14.53 14.531L12.53 16.531C12.384 16.677 12.192 16.751 12 16.751C11.808 16.751 11.616 16.678 11.47 16.531C11.177 16.238 11.177 15.763 11.47 15.47L12.9399 14L11.47 12.53C11.177 12.237 11.177 11.762 11.47 11.469C11.763 11.176 12.238 11.176 12.531 11.469L14.53 13.47Z" fill="currentColor"/>
</svg>

<svg xmlns="http://www.w3.org/2000/svg" width="24" height="24" fill="none"><path fill="currentColor" d="M18 6.25h-4.689l-2.78-2.78a.749.749 0 0 0-.53-.22h-4c-2.418 0-3.75 1.332-3.75 3.75v10c0 2.418 1.332 3.75 3.75 3.75h12c2.418 0 3.75-1.332 3.75-3.75v-7C21.75 7.582 20.418 6.25 18 6.25ZM20.25 17c0 1.577-.673 2.25-2.25 2.25H6c-1.577 0-2.25-.673-2.25-2.25V7c0-1.577.673-2.25 2.25-2.25h3.689l2.78 2.78c.141.141.331.22.53.22h5c1.577 0 2.25.673 2.25 2.25v7h.001ZM9.53 12.53 8.06 14l1.47 1.47a.75.75 0 0 1-1.06 1.061l-2-2a.75.75 0 0 1 0-1.061l2-2a.75.75 0 0 1 1.06 1.06Zm5 .94a.75.75 0 0 1 0 1.061l-2 2a.748.748 0 0 1-1.06 0 .75.75 0 0 1 0-1.061L12.94 14l-1.47-1.47a.75.75 0 1 1 1.061-1.061l1.999 2.001Z"/></svg>
